X: 17624
T: Hold Up The Sky
R: jig
M: 6/8
K: Bminor
Bde f2e|def- fed|e2f a2f|b2a f/e/dB|
Bde f2e|def- fed|e2d B2A|B3 BAF:|
|:G2B BAB|d2B G3|E2B BAB|e2d B2F|
ABB- BAF|ABB- BAB|dB/c/d ede|efa f/e/dB|
G2B BAB|d2B G3|E2B BAB|e2d B2F|
dAB- BAB|dAB- BAB|dB/c/d ede|fdB B2A:|

